X: 13
T: Denis Murphy's
Z: Fernando Durbán Galnares
S: https://thesession.org/tunes/159#setting47842
R: slide
M: 12/8
L: 1/8
K: Dmaj
|:B|"D"A2D FED F2A A2f|"G"g2e f2d "A"e2d Bcd|
"D"A2D FED F2A A2f|"G"a2f "A"efe "D"d3 d2:|
|:A|"D"d2e f2f "G"gfe "D"f2f|"Em"gfe f2d "A"e2d BAB|
"D"d2e f2f "G"gfe "D"f2g|"A"a2f efe "D"d3 d2:|

